X:85
%%topspace -50
T:Whose? Jig
M:6/8
L:1/8
K:G
DF |"G"G2G "D7"F2F | "G"GFG D2D | "C"E2E "Am"c2B | "D7"A3- A2D | 
"C"E2c cBc | "G"d2B G2D | "C"E2c "D7"B2A | "G"G3- G :|
|: Bc | "G"d2d ded | "A7"^c2A A2B | "D7"=c2c cBA | "G7"B3 d3 | 
"C"e2c Ace | "G"d2B G2B | "D7"d2d cAF | "G"G3- G :|]

